public/icons/icon_chat.svg

<svg width="20" height="20" viewBox="0 0 20 20" fill="none" xmlns="http://www.w3.org/2000/svg">
<path fill-rule="evenodd" clip-rule="evenodd" d="M5.5 5C4.11929 5 3 6.11929 3 7.5V11.5C3 12.8807 4.11929 14 5.5 14H7V17L10 14H13.5C14.8807 14 16 12.8807 16 11.5V7.5C16 6.11929 14.8807 5 13.5 5H5.5Z" fill="url(#paint0_linear_288_5175)"/>
<path d="M7 14H7.5C7.5 13.7239 7.27614 13.5 7 13.5V14ZM7 17H6.5C6.5 17.2022 6.62182 17.3845 6.80866 17.4619C6.9955 17.5393 7.21055 17.4966 7.35355 17.3536L7 17ZM10 14V13.5C9.86739 13.5 9.74021 13.5527 9.64645 13.6464L10 14ZM3.5 7.5C3.5 6.39543 4.39543 5.5 5.5 5.5V4.5C3.84315 4.5 2.5 5.84315 2.5 7.5H3.5ZM3.5 11.5V7.5H2.5V11.5H3.5ZM5.5 13.5C4.39543 13.5 3.5 12.6046 3.5 11.5H2.5C2.5 13.1569 3.84314 14.5 5.5 14.5V13.5ZM7 13.5H5.5V14.5H7V13.5ZM7.5 17V14H6.5V17H7.5ZM9.64645 13.6464L6.64645 16.6464L7.35355 17.3536L10.3536 14.3536L9.64645 13.6464ZM13.5 13.5H10V14.5H13.5V13.5ZM15.5 11.5C15.5 12.6046 14.6046 13.5 13.5 13.5V14.5C15.1569 14.5 16.5 13.1569 16.5 11.5H15.5ZM15.5 7.5V11.5H16.5V7.5H15.5ZM13.5 5.5C14.6046 5.5 15.5 6.39543 15.5 7.5H16.5C16.5 5.84315 15.1569 4.5 13.5 4.5V5.5ZM5.5 5.5H13.5V4.5H5.5V5.5Z" fill="url(#paint1_linear_288_5175)"/>
<circle cx="6.1875" cy="9.6875" r="0.9375" fill="white"/>
<circle cx="9.5625" cy="9.6875" r="0.9375" fill="white"/>
<circle cx="13.0625" cy="9.6875" r="0.9375" fill="white"/>
<defs>
<linearGradient id="paint0_linear_288_5175" x1="3" y1="5" x2="3" y2="17" gradientUnits="userSpaceOnUse">
<stop stop-color="#4289F2"/>
<stop offset="1" stop-color="#1F51E1"/>
</linearGradient>
<linearGradient id="paint1_linear_288_5175" x1="3" y1="5" x2="3" y2="17" gradientUnits="userSpaceOnUse">
<stop stop-color="#4289F2"/>
<stop offset="1" stop-color="#1F51E1"/>
</linearGradient>
</defs>
</svg>

<?xml version="1.0" encoding="utf-8"?>
<!-- Generator: Adobe Illustrator 27.6.1, SVG Export Plug-In . SVG Version: 6.00 Build 0)  -->
<svg version="1.1" id="레이어_1" xmlns="http://www.w3.org/2000/svg" xmlns:xlink="http://www.w3.org/1999/xlink" x="0px"
	 y="0px" viewBox="0 0 20 20" style="enable-background:new 0 0 20 20;" xml:space="preserve">
<style type="text/css">
	.st0{fill-rule:evenodd;clip-rule:evenodd;fill:url(#SVGID_1_);}
	.st1{fill:url(#SVGID_00000018209685524472095590000005308553461066090923_);}
	.st2{fill:#FFFFFF;}
</style>
<linearGradient id="SVGID_1_" gradientUnits="userSpaceOnUse" x1="9.5" y1="14.8898" x2="9.5" y2="2.8898" gradientTransform="matrix(1 0 0 -1 0 19.8898)">
	<stop  offset="0" style="stop-color:#4289F2"/>
	<stop  offset="1" style="stop-color:#1F51E1"/>
</linearGradient>
<path class="st0" d="M5.5,5C4.1,5,3,6.1,3,7.5v4C3,12.9,4.1,14,5.5,14H7v3l3-3h3.5c1.4,0,2.5-1.1,2.5-2.5v-4C16,6.1,14.9,5,13.5,5
	H5.5z"/>
<linearGradient id="SVGID_00000039101771778982687940000013235164353693578666_" gradientUnits="userSpaceOnUse" x1="9.5" y1="14.8898" x2="9.5" y2="2.8898" gradientTransform="matrix(1 0 0 -1 0 19.8898)">
	<stop  offset="0" style="stop-color:#4289F2"/>
	<stop  offset="1" style="stop-color:#1F51E1"/>
</linearGradient>
<path style="fill:url(#SVGID_00000039101771778982687940000013235164353693578666_);" d="M7,14h0.5c0-0.3-0.2-0.5-0.5-0.5V14z M7,17
	H6.5c0,0.2,0.1,0.4,0.3,0.5s0.4,0,0.5-0.1L7,17z M10,14v-0.5c-0.1,0-0.3,0.1-0.4,0.1L10,14z M3.5,7.5c0-1.1,0.9-2,2-2v-1
	c-1.7,0-3,1.3-3,3H3.5z M3.5,11.5v-4h-1v4H3.5z M5.5,13.5c-1.1,0-2-0.9-2-2h-1c0,1.7,1.3,3,3,3V13.5z M7,13.5H5.5v1H7V13.5z M7.5,17
	v-3h-1v3H7.5z M9.6,13.6l-3,3l0.7,0.7l3-3L9.6,13.6z M13.5,13.5H10v1h3.5V13.5z M15.5,11.5c0,1.1-0.9,2-2,2v1c1.7,0,3-1.3,3-3H15.5z
	 M15.5,7.5v4h1v-4H15.5z M13.5,5.5c1.1,0,2,0.9,2,2h1c0-1.7-1.3-3-3-3V5.5z M5.5,5.5h8v-1h-8V5.5z"/>
<circle class="st2" cx="6.2" cy="9.7" r="0.9"/>
<circle class="st2" cx="9.6" cy="9.7" r="0.9"/>
<circle class="st2" cx="13.1" cy="9.7" r="0.9"/>
</svg>
